X:578
%%etbk:tnset id:310,pos:1,rep:3x,ant:
%%etbk:wsite http://thesession.org/tunes/11574
%%etbk:pldat 2016-01-01T16:34,2014-09-21T15:15,2014-09-16T18:48,2014-05-23T16:29,2014-05-13T19:00,2014-05-11T11:40,2014-04-11T18:08,2014-04-10T19:04
T: Lament For Frankie
Z: Piano Box Version by Martin Fleischmann
H: Created 2014-05-11 /  Last Modified 2014-05-11
R: slow air
M: 4/4
L: 1/8
C: Solas
K: Fmaj
|:"C-Drone"(C3F G4)|(C3G B3G|A3F B4)|G8:|
!4!(f3e !1!c!3!B3) |!3!(B3A B!4!c3|!1!G4) !2!(A3G|A!3!B3) (A3G| AB3) !2!(A3!1!G|G8)|
|:(C3F G4)|(C3G B3G|A3F B4)|G8:|
(e|f2e cB3)|(B3A Bc3|G4) (E !4!F3|E!1!C!2!B,2 F3E|C3B, F3E|C8)||
|:(C3F G4)|(C3G B3G|A3F B4)|G8:|
(f3e cB3)|(B3A Bc3)|G4 ([F3A3][EG]|
[CA][B,3B3]) ([F3A3][EG]|[C2A2][B,2B2]) ([F3A3][EG]|[C8G8])||


